;FLAVOR:Marlin
;TIME:1083
;Filament used: 0.649081m
;Layer height: 0.2
;MINX:92.7
;MINY:106.7
;MINZ:0.2
;MAXX:137.3
;MAXY:133.3
;MAXZ:5.2
;TARGET_MACHINE.NAME:Creality Ender-3 Pro
;Generated with Cura_SteamEngine 5.6.0
M140 S65
M105
M190 S65
M104 S235
M105
M109 S235
M82 ;absolute extrusion mode
M117 Antiblob retract...
G92 E0 ; Reset Extruder distance to 0
G1 E-3 ; Retracts filament to prevent blobs during probing
G92 E0 ; Reset Extruder distance to 0
M117 Homing...
G28 ; home all axes
M117 Generating mesh...
G29; auto bed leveling
M117 Heaters Stabilizing...
G4 S5; wait for heaters to recover
M117 Purging extruder...
G92 E0     ; reset extruder
G1 Z1.0 F3000    ; move z up little to prevent scratching of surface
G1 X0.1 Y40 Z0.3 F5000.0  ; move to start-line position
G1 X0.1 Y100.0 Z0.3 F500.0 E15  ; draw 1st line
G1 X0.4 Y100.0 Z0.3 F5000.0  ; move to side a little
G1 X0.4 Y40 Z0.3 F500.0 E30  ; draw 2nd line
G92 E0     ; reset extruder
G1 Z1.0 F3000    ; move z up little to prevent scratching of surface
M117 Making Magic...
G92 E0
G92 E0
G1 F1500 E-6.5
;LAYER_COUNT:25
;LAYER:0
M107
M204 S500
M205 X8 Y8
G1 F300 Z0.4
;MESH:CameraPlate_v1.stl
G0 F6000 X96.1 Y112.072 Z0.4
;TYPE:WALL-INNER
G1 F300 Z0.2
G1 F1500 E0
G1 F600 X95.697 Y112.102 E0.01344
G1 X95.242 Y112.047 E0.02868
G1 X94.777 Y111.905 E0.04486
G1 X94.284 Y111.603 E0.06408
G1 X93.985 Y111.302 E0.0782
G1 X93.69 Y110.89 E0.09505
G1 X93.498 Y110.438 E0.11138
G1 F634.9 X93.412 Y109.875 E0.12928
G1 F666.7 X93.457 Y109.279 E0.14718
G1 F629.9 X93.576 Y108.851 E0.16125
G1 F600 X93.751 Y108.511 E0.17397
G1 X94.018 Y108.156 E0.18874
G1 X94.455 Y107.765 E0.20825
G1 F615.4 X94.997 Y107.52 E0.22753
G1 F645.2 X95.425 Y107.44 E0.241
G1 F668.5 X95.964 Y107.433 E0.25709
G1 F652.2 X96.309 Y107.478 E0.26774
G1 F615.4 X96.642 Y107.577 E0.279
G1 F600 X97.028 Y107.76 E0.29321
G1 X97.395 Y108.066 E0.30911
G1 X97.76 Y108.499 E0.32794
G1 X98.009 Y109.048 E0.34799
G1 X98.108 Y109.64 E0.36796
G1 X98.056 Y110.211 E0.38703
G1 X97.919 Y110.659 E0.40261
G1 X97.704 Y111.061 E0.41777
G1 X97.474 Y111.354 E0.43016
G1 X97.042 Y111.737 E0.44936
G1 X96.507 Y111.978 E0.46888
G1 X96.1 Y112.072 E0.48277
G1 F1500 E-6.01723
G1 F300 Z0.4
G0 F6000 X96.504 Y132.479 Z0.4
G1 F300 Z0.2
G1 F1500 E0.48277
G1 F643.4 X96.073 Y132.559 E0.49637
G1 F670.4 X95.64 Y132.572 E0.50926
G1 F666.7 X95.238 Y132.536 E0.52134
G1 F626.6 X94.783 Y132.408 E0.5364
G1 F600 X94.286 Y132.105 E0.55576
G1 X93.985 Y131.802 E0.56996
G1 X93.69 Y131.39 E0.58681
G1 X93.498 Y130.938 E0.60315
G1 F634.9 X93.412 Y130.375 E0.62105
G1 F666.7 X93.457 Y129.779 E0.63894
G1 F629.9 X93.576 Y129.351 E0.65301
G1 F600 X93.751 Y129.011 E0.66573
G1 X94.018 Y128.656 E0.68051
G1 X94.455 Y128.265 E0.70001
G1 X94.999 Y128.019 E0.71987
G1 X95.445 Y127.914 E0.73511
G1 X95.919 Y127.905 E0.75088
G1 X96.24 Y127.952 E0.76167
G1 X96.562 Y128.046 E0.77282
G1 X97.022 Y128.256 E0.78964
G1 X97.394 Y128.566 E0.80575
G1 X97.76 Y128.999 E0.8246
G1 X98.01 Y129.551 E0.84476
G1 X98.108 Y130.151 E0.86498
G1 X98.06 Y130.708 E0.88357
G1 X97.923 Y131.155 E0.89912
G1 X97.703 Y131.562 E0.91451
G1 X97.474 Y131.854 E0.92685
G1 X97.042 Y132.237 E0.94606
G1 F613.8 X96.504 Y132.479 E0.96524
G1 F1500 E-5.53476
G1 F300 Z0.4
G0 F6000 X128.972 Y129.036 Z0.4
G1 F300 Z0.2
G1 F1500 E0.96524
G1 F600 X128.78 Y129.1 E0.97197
G1 X101.193 Y129.1 E1.88951
G1 X100.939 Y128.98 E1.89886
G1 X100.756 Y128.756 E1.90848
G1 X100.7 Y128.582 E1.91456
G1 X100.7 Y111.422 E2.4853
G1 X100.748 Y111.263 E2.49083
G1 X100.882 Y111.068 E2.4987
G1 X101.027 Y110.965 E2.50461
G1 X101.22 Y110.9 E2.51138
G1 X128.807 Y110.9 E3.42893
G1 X129.063 Y111.021 E3.43835
G1 X129.251 Y111.26 E3.44846
G1 X129.3 Y111.472 E3.4557
G1 X129.299 Y128.537 E4.02328
G1 X129.253 Y128.736 E4.03008
G1 X129.116 Y128.934 E4.03809
G1 X128.972 Y129.036 E4.04396
G1 F1500 E-2.45604
G1 F300 Z0.4
G0 F6000 X133.28 Y132.9 Z0.4
G1 F300 Z0.2
G1 F1500 E4.04396
G1 F640 X134.25 Y132.925 E4.07421
G1 F643.4 X134.992 Y132.902 E4.09724
G1 F604.5 X136.9 Y132.9 E4.16022
G1 F600 X136.9 Y131.171 E4.21773
G1 F643.4 X136.927 Y130.17 E4.24878
G1 F652.2 X136.905 Y129.589 E4.26658
G1 F607.6 X136.9 Y110.671 E4.88793
G1 F643.4 X136.927 Y109.67 E4.91898
G1 F652.2 X136.905 Y109.089 E4.93677
G1 F607.6 X136.9 Y107.1 E5.0021
G1 F601.5 X135.129 Y107.099 E5.06086
G1 F638.3 X134.365 Y107.076 E5.08475
G1 F670.4 X133.894 Y107.08 E5.09878
G1 F633.2 X133.509 Y107.097 E5.11092
G1 F604.5 X96.629 Y107.099 E6.32835
G1 F638.3 X95.865 Y107.076 E6.35225
G1 F670.4 X95.394 Y107.08 E6.36627
G1 F633.2 X95.009 Y107.097 E6.37842
G1 F604.5 X93.1 Y107.103 E6.44144
G1 F600 X93.101 Y108.825 E6.49871
G1 F645.2 X93.072 Y109.841 E6.53015
G1 X93.101 Y110.43 E6.54839
G1 F600 X93.101 Y129.325 E7.17684
G1 F645.2 X93.072 Y130.341 E7.20828
G1 X93.101 Y130.93 E7.22652
G1 F600 X93.101 Y132.899 E7.29201
G1 X94.78 Y132.9 E7.34785
G1 F640 X95.75 Y132.925 E7.37811
G1 F643.4 X96.492 Y132.902 E7.40113
G1 F604.5 X133.28 Y132.9 E8.61553
G0 F6000 X133.738 Y132.536
G1 F626.6 X133.283 Y132.408 E8.63058
G1 F600 X132.785 Y132.104 E8.64999
G1 X132.449 Y131.764 E8.66589
G1 X132.188 Y131.385 E8.68119
G1 X132.002 Y130.948 E8.69699
G1 X131.885 Y130.351 E8.71722
G1 X131.943 Y129.792 E8.73592
G1 X132.078 Y129.349 E8.75132
G1 X132.25 Y129.011 E8.76393
G1 X132.521 Y128.653 E8.77887
G1 X132.955 Y128.264 E8.79825
G1 X133.499 Y128.019 E8.8181
G1 X133.948 Y127.914 E8.83343
G1 X134.368 Y127.906 E8.8474
G1 X134.768 Y127.955 E8.86081
G1 X135.142 Y128.077 E8.87389
G1 X135.525 Y128.258 E8.88798
G1 X135.894 Y128.566 E8.90397
G1 X136.261 Y129 E8.92287
G1 F604.5 X136.508 Y129.556 E8.94296
G1 F648.6 X136.581 Y130.17 E8.96198
G1 F670.4 X136.546 Y130.695 E8.97764
G1 F623.4 X136.425 Y131.156 E8.9929
G1 F600 X136.172 Y131.6 E9.0099
G1 X135.968 Y131.859 E9.02086
G1 X135.542 Y132.237 E9.0398
G1 F613.8 X135.004 Y132.479 E9.05898
G1 F643.4 X134.573 Y132.559 E9.07258
G1 F670.4 X134.14 Y132.572 E9.08547
G1 F666.7 X133.738 Y132.536 E9.09756
G1 F1500 E2.59756
G1 F300 Z0.4
G0 F6000 X133.761 Y112.048 Z0.4
G1 F300 Z0.2
G1 F1500 E9.09756
G1 F600 X133.28 Y111.907 E9.11423
G1 X132.783 Y111.603 E9.13361
G1 X132.445 Y111.26 E9.14962
G1 X132.174 Y110.851 E9.16594
G1 X132.003 Y110.45 E9.18044
G1 X131.888 Y109.896 E9.19926
G1 X131.938 Y109.297 E9.21925
G1 X132.079 Y108.847 E9.23494
G1 X132.25 Y108.511 E9.24747
G1 X132.521 Y108.153 E9.26241
G1 X132.955 Y107.764 E9.28179
G1 F615.4 X133.497 Y107.52 E9.30107
G1 F645.2 X133.925 Y107.44 E9.31454
G1 F668.5 X134.464 Y107.433 E9.33063
G1 F652.2 X134.809 Y107.478 E9.34127
G1 F615.4 X135.142 Y107.577 E9.35254
G1 F600 X135.531 Y107.761 E9.36685
G1 X135.904 Y108.079 E9.38315
G1 X136.261 Y108.5 E9.40151
G1 F604.5 X136.508 Y109.056 E9.4216
G1 F648.6 X136.581 Y109.67 E9.44062
G1 F670.4 X136.546 Y110.195 E9.45628
G1 F623.4 X136.425 Y110.656 E9.47154
G1 F600 X136.172 Y111.1 E9.48854
G1 X135.968 Y111.36 E9.49953
G1 X135.539 Y111.738 E9.51855
G1 X135.006 Y111.978 E9.53799
G1 X134.556 Y112.082 E9.55335
G1 X134.191 Y112.102 E9.56551
G1 X133.761 Y112.048 E9.57992
G0 F6000 X133.807 Y111.649
;TYPE:WALL-OUTER
G1 F600 X133.422 Y111.524 E9.59339
G1 X133.014 Y111.268 E9.60941
G1 X132.749 Y110.994 E9.62208
G1 X132.531 Y110.67 E9.63507
G1 X132.383 Y110.308 E9.64808
G1 X132.287 Y109.85 E9.66364
G1 X132.332 Y109.39 E9.67902
G1 X132.458 Y108.984 E9.69316
G1 X132.6 Y108.713 E9.70333
G1 X132.831 Y108.412 E9.71595
G1 X133.176 Y108.104 E9.73133
G1 X133.61 Y107.908 E9.74717
G1 X133.99 Y107.815 E9.76018
G1 X134.409 Y107.807 E9.77412
G1 X134.664 Y107.844 E9.78269
G1 X134.944 Y107.928 E9.79242
G1 X135.329 Y108.115 E9.80665
G1 X135.623 Y108.365 E9.81949
G1 X135.921 Y108.717 E9.83483
G1 X136.127 Y109.191 E9.85202
G1 X136.208 Y109.67 E9.86818
G1 X136.165 Y110.129 E9.88351
G1 X136.057 Y110.484 E9.89585
G1 X135.857 Y110.854 E9.90984
G1 X135.691 Y111.066 E9.91879
G1 X135.322 Y111.398 E9.9353
G1 X134.857 Y111.602 E9.95219
G1 X134.484 Y111.685 E9.9649
G1 X134.185 Y111.698 E9.97486
G1 X133.807 Y111.649 E9.98753
G1 F1500 E3.48753
G1 F300 Z0.4
G0 F6000 X133.807 Y132.149 Z0.4
G1 F300 Z0.2
G1 F1500 E9.98753
G1 F600 X133.422 Y132.024 E10.001
G1 X133.014 Y131.768 E10.01702
G1 X132.749 Y131.494 E10.0297
G1 X132.531 Y131.17 E10.04268
G1 X132.383 Y130.808 E10.05569
G1 X132.29 Y130.354 E10.07111
G1 X132.335 Y129.871 E10.08724
G1 X132.458 Y129.484 E10.10075
G1 X132.6 Y129.213 E10.11092
G1 X132.831 Y128.912 E10.12354
G1 X133.176 Y128.604 E10.13892
G1 X133.61 Y128.408 E10.15476
G1 X133.982 Y128.317 E10.1675
G1 X134.409 Y128.308 E10.1817
G1 X134.694 Y128.351 E10.19129
G1 X134.944 Y128.428 E10.19999
G1 X135.329 Y128.615 E10.21423
G1 X135.623 Y128.865 E10.22706
G1 X135.921 Y129.217 E10.2424
G1 X136.127 Y129.691 E10.25959
G1 X136.208 Y130.17 E10.27575
G1 X136.165 Y130.629 E10.29108
G1 X136.057 Y130.984 E10.30343
G1 X135.857 Y131.354 E10.31741
G1 X135.691 Y131.566 E10.32637
G1 X135.322 Y131.898 E10.34288
G1 X134.856 Y132.103 E10.35981
G1 X134.508 Y132.183 E10.37169
G1 X134.21 Y132.199 E10.38161
G1 X133.807 Y132.149 E10.39512
G1 F1500 E3.89512
G1 F300 Z0.4
G0 F6000 X137.3 Y133.3 Z0.4
G1 F300 Z0.2
G1 F1500 E10.39512
G1 F600 X137.3 Y106.7 E11.27984
G1 X92.7 Y106.701 E12.76324
G1 X92.701 Y133.299 E13.6479
G1 X137.3 Y133.3 E15.13126
G1 F1500 E8.63126
G1 F300 Z0.4
G0 F6000 X101.252 Y128.695 Z0.4
G1 F300 Z0.2
G1 F1500 E15.13126
G1 F600 X101.16 Y128.644 E15.13476
G1 X101.103 Y128.538 E15.13877
G1 X101.101 Y111.473 E15.70635
G1 X101.135 Y111.385 E15.70949
G1 X101.265 Y111.302 E15.71462
G1 X128.748 Y111.305 E16.62871
G1 X128.843 Y111.359 E16.63234
G1 X128.901 Y111.5 E16.63741
G1 X128.9 Y128.581 E17.20553
G1 X128.735 Y128.698 E17.21226
G1 X101.252 Y128.695 E18.12634
G1 F1500 E11.62634
G1 F300 Z0.4
G0 F6000 X96.008 Y132.183 Z0.4
G1 F300 Z0.2
G1 F1500 E18.12634
G1 F600 X95.71 Y132.199 E18.13627
G1 X95.307 Y132.149 E18.14978
G1 X94.922 Y132.024 E18.16324
G1 X94.514 Y131.768 E18.17926
G1 X94.249 Y131.494 E18.19194
G1 X94.031 Y131.17 E18.20493
G1 X93.894 Y130.845 E18.21666
G1 X93.787 Y130.354 E18.23337
G1 X93.832 Y129.891 E18.24884
G1 X93.958 Y129.483 E18.26305
G1 X94.1 Y129.213 E18.27319
G1 X94.331 Y128.912 E18.28581
G1 X94.676 Y128.604 E18.30119
G1 X95.11 Y128.408 E18.31703
G1 X95.521 Y128.313 E18.33106
G1 X95.909 Y128.308 E18.34397
G1 X96.194 Y128.351 E18.35356
G1 X96.444 Y128.428 E18.36226
G1 X96.829 Y128.615 E18.37649
G1 X97.123 Y128.865 E18.38933
G1 X97.42 Y129.216 E18.40462
G1 X97.622 Y129.666 E18.42103
G1 X97.708 Y130.163 E18.4378
G1 X97.667 Y130.614 E18.45286
G1 X97.557 Y130.984 E18.4657
G1 X97.357 Y131.354 E18.47969
G1 X97.191 Y131.566 E18.48865
G1 X96.822 Y131.898 E18.50516
G1 X96.356 Y132.103 E18.52209
G1 X96.008 Y132.183 E18.53397
G1 F1500 E12.03397
G1 F300 Z0.4
G0 F6000 X96.016 Y111.681 Z0.4
G1 F300 Z0.2
G1 F1500 E18.53397
G1 F600 X95.685 Y111.698 E18.54499
G1 X95.307 Y111.649 E18.55767
G1 X94.922 Y111.524 E18.57113
G1 X94.514 Y111.268 E18.58715
G1 X94.249 Y110.994 E18.59983
G1 X94.031 Y110.67 E18.61282
G1 X93.894 Y110.345 E18.62455
G1 X93.787 Y109.854 E18.64126
G1 X93.832 Y109.391 E18.65673
G1 X93.958 Y108.983 E18.67094
G1 X94.1 Y108.713 E18.68108
G1 X94.332 Y108.412 E18.69372
G1 X94.675 Y108.104 E18.70906
G1 X95.11 Y107.908 E18.72492
G1 X95.49 Y107.815 E18.73794
G1 X95.909 Y107.807 E18.75187
G1 X96.164 Y107.844 E18.76045
G1 X96.444 Y107.928 E18.77017
G1 X96.829 Y108.115 E18.7844
G1 X97.123 Y108.365 E18.79724
G1 X97.42 Y108.716 E18.81253
G1 X97.613 Y109.143 E18.82812
G1 X97.708 Y109.66 E18.8456
G1 X97.667 Y110.114 E18.86076
G1 X97.55 Y110.503 E18.87427
G1 X97.357 Y110.854 E18.8876
G1 X97.191 Y111.066 E18.89655
G1 X96.823 Y111.397 E18.91301
G1 X96.394 Y111.59 E18.92866
G1 X96.016 Y111.681 E18.94159
G1 F1500 E12.44159
G1 F300 Z0.4
G0 F6000 X132.807 Y132.539 Z0.4
;TYPE:SKIN
G1 F300 Z0.2
G1 F1500 E18.94159
G1 F600 X97.233 Y132.543 E20.12479
G1 X97.722 Y132.115 E20.1464
G1 X97.998 Y131.768 E20.16115
G1 X98.264 Y131.277 E20.17972
G1 X98.41 Y130.8 E20.19631
G1 X98.468 Y130.126 E20.21881
G1 X98.357 Y129.444 E20.2418
G1 X98.072 Y128.808 E20.26498
G1 X97.66 Y128.322 E20.28617
G1 X97.238 Y127.966 E20.30453
G1 X96.716 Y127.714 E20.32381
G1 X96.326 Y127.601 E20.33731
G1 X95.952 Y127.547 E20.34988
G1 X95.423 Y127.554 E20.36748
G1 X94.898 Y127.673 E20.38538
G1 X94.258 Y127.956 E20.40866
G1 X93.765 Y128.398 E20.43068
G1 X93.46 Y128.8 E20.44746
G1 X93.461 Y111.192 E21.03311
G1 X93.68 Y111.504 E21.04579
G1 X94.04 Y111.87 E21.06286
G1 X94.657 Y112.246 E21.08689
G1 X95.156 Y112.397 E21.10423
G1 X95.663 Y112.463 E21.12124
G1 X96.085 Y112.441 E21.13529
G1 X96.643 Y112.312 E21.15434
G1 X97.24 Y112.043 E21.17612
G1 X97.749 Y111.586 E21.19887
G1 X98.016 Y111.24 E21.21341
G1 X98.253 Y110.793 E21.23024
G1 X98.41 Y110.277 E21.24818
G1 X98.472 Y109.638 E21.26953
G1 X98.355 Y108.933 E21.2933
G1 X98.07 Y108.307 E21.31617
G1 X97.664 Y107.827 E21.33708
G1 X97.226 Y107.459 E21.35611
G1 X132.768 Y107.456 E22.53824
G1 X132.265 Y107.898 E22.56051
G1 X131.958 Y108.3 E22.57734
G1 X131.751 Y108.698 E22.59226
G1 X131.58 Y109.243 E22.61126
G1 X131.52 Y109.898 E22.63313
G1 X131.658 Y110.555 E22.65546
G1 X131.864 Y111.043 E22.67308
G1 X132.157 Y111.475 E22.69044
G1 X132.534 Y111.866 E22.70851
G1 X133.135 Y112.239 E22.73203
G1 X133.7 Y112.403 E22.7516
G1 X134.154 Y112.462 E22.76683
G1 X134.589 Y112.441 E22.78131
G1 X135.142 Y112.313 E22.80019
G1 X135.743 Y112.041 E22.82213
G1 X136.215 Y111.625 E22.84306
G1 X136.54 Y111.214 E22.86049
G1 X136.54 Y128.775 E23.44457
G1 X136.157 Y128.322 E23.4643
G1 X135.741 Y127.969 E23.48244
G1 X135.292 Y127.751 E23.49905
G1 X134.844 Y127.603 E23.51474
G1 X134.452 Y127.547 E23.52791
G1 X133.92 Y127.554 E23.5456
G1 X133.393 Y127.675 E23.56359
G1 X132.758 Y127.956 E23.58668
G1 X132.267 Y128.396 E23.60861
G1 X131.954 Y128.807 E23.6258
G1 X131.739 Y129.221 E23.64131
G1 X131.59 Y129.725 E23.65879
G1 X131.522 Y130.403 E23.68145
G1 X131.653 Y131.032 E23.70282
G1 X131.879 Y131.572 E23.72229
G1 X132.16 Y131.982 E23.73883
G1 X132.575 Y132.399 E23.75839
G1 X132.807 Y132.539 E23.76741
G1 F1500 E17.26741
G1 F300 Z0.4
G0 F6000 X101.119 Y129.46 Z0.4
G1 F300 Z0.2
G1 F1500 E23.76741
G1 F600 X128.834 Y129.458 E24.68921
G1 X129.138 Y129.356 E24.69988
G1 X129.368 Y129.196 E24.70919
G1 X129.58 Y128.889 E24.7216
G1 X129.658 Y128.568 E24.73259
G1 X129.656 Y111.423 E25.30284
G1 X129.582 Y111.106 E25.31366
G1 X129.279 Y110.73 E25.32972
G1 X128.881 Y110.54 E25.34439
G1 X101.166 Y110.542 E26.2662
G1 X100.862 Y110.644 E26.27686
G1 X100.639 Y110.802 E26.28595
G1 X100.421 Y111.116 E26.29867
G1 X100.345 Y111.351 E26.30688
G1 X100.34 Y128.602 E26.88065
G1 X100.428 Y128.916 E26.8915
G1 X100.725 Y129.273 E26.90694
G1 X101.119 Y129.46 E26.92145
G1 F1500 E20.42145
G1 F300 Z0.4
G0 F6000 X93.987 Y127.929 Z0.4
G1 F300 Z0.2
G1 F1500 E26.92145
G1 F600 X93.661 Y127.602 E26.93681
G0 F6000 X93.661 Y127.036
G1 F600 X94.329 Y127.704 E26.96823
G0 F6000 X94.723 Y127.533
G1 F600 X93.661 Y126.47 E27.0182
G0 F6000 X93.661 Y125.905
G1 F600 X95.16 Y127.404 E27.08871
G0 F6000 X95.672 Y127.35
G1 F600 X93.661 Y125.339 E27.1833
G0 F6000 X93.661 Y124.773
G1 F600 X96.28 Y127.393 E27.30652
G0 F6000 X97.146 Y127.693
G1 F600 X93.661 Y124.208 E27.47044
G0 F6000 X93.661 Y123.642
G1 F600 X102.36 Y132.341 E27.87961
G0 F6000 X102.925 Y132.341
G1 F600 X93.661 Y123.076 E28.31539
G0 F6000 X93.661 Y122.511
G1 F600 X103.491 Y132.341 E28.77776
G0 F6000 X104.057 Y132.341
G1 F600 X101.375 Y129.659 E28.90391
G0 F6000 X101.94 Y129.659
G1 F600 X104.622 Y132.341 E29.03007
G0 F6000 X105.187 Y132.34
G1 F600 X102.506 Y129.659 E29.15617
G0 F6000 X103.072 Y129.659
G1 F600 X105.753 Y132.34 E29.28228
G0 F6000 X106.319 Y132.34
G1 F600 X103.637 Y129.659 E29.40841
G0 F6000 X104.203 Y129.659
G1 F600 X106.884 Y132.34 E29.53451
G0 F6000 X107.45 Y132.34
G1 F600 X104.769 Y129.659 E29.66062
G0 F6000 X105.334 Y129.658
G1 F600 X108.016 Y132.34 E29.78677
G0 F6000 X108.581 Y132.34
G1 F600 X105.899 Y129.658 E29.91293
G0 F6000 X106.465 Y129.658
G1 F600 X109.147 Y132.34 E30.03908
G0 F6000 X109.713 Y132.34
G1 F600 X107.031 Y129.658 E30.16523
G0 F6000 X107.596 Y129.658
G1 F600 X110.278 Y132.34 E30.29139
G0 F6000 X110.844 Y132.34
G1 F600 X108.162 Y129.658 E30.41754
