;FLAVOR:Marlin
;TIME:1425
;Filament used: 0.79976m
;Layer height: 0.2
;MINX:91.7
;MINY:99.701
;MINZ:0.2
;MAXX:138.3
;MAXY:135.3
;MAXZ:8
;TARGET_MACHINE.NAME:Creality Ender-3 Pro
;Generated with Cura_SteamEngine 5.6.0
M140 S65
M105
M190 S65
M104 S235
M105
M109 S235
M82 ;absolute extrusion mode
M117 Antiblob retract...
G92 E0 ; Reset Extruder distance to 0
G1 E-3 ; Retracts filament to prevent blobs during probing
G92 E0 ; Reset Extruder distance to 0
M117 Homing...
G28 ; home all axes
M117 Generating mesh...
G29; auto bed leveling
M117 Heaters Stabilizing...
G4 S5; wait for heaters to recover
M117 Purging extruder...
G92 E0     ; reset extruder
G1 Z1.0 F3000    ; move z up little to prevent scratching of surface
G1 X0.1 Y40 Z0.3 F5000.0  ; move to start-line position
G1 X0.1 Y100.0 Z0.3 F500.0 E15  ; draw 1st line
G1 X0.4 Y100.0 Z0.3 F5000.0  ; move to side a little
G1 X0.4 Y40 Z0.3 F500.0 E30  ; draw 2nd line
G92 E0     ; reset extruder
G1 Z1.0 F3000    ; move z up little to prevent scratching of surface
M117 Making Magic...
G92 E0
G92 E0
G1 F1500 E-6.5
;LAYER_COUNT:40
;LAYER:0
M107
G1 F300 Z0.4
;MESH:CameraPlate_v2.stl
G0 F6000 X94.754 Y104.312 Z0.4
;TYPE:WALL-INNER
G1 F300 Z0.2
G1 F1500 E0
G1 F600 X94.171 Y104.201 E0.01974
G1 X93.962 Y104.116 E0.02724
G1 X93.647 Y103.912 E0.03973
G1 X93.426 Y103.664 E0.05077
G1 X93.178 Y103.234 E0.06728
G1 X93.098 Y102.542 E0.09045
G1 X93.25 Y102.004 E0.10905
G1 X93.534 Y101.608 E0.12526
G1 X93.889 Y101.308 E0.14071
G1 X94.328 Y101.138 E0.15637
G1 X94.674 Y101.1 E0.16795
G1 X95.042 Y101.14 E0.18026
G1 X95.256 Y101.208 E0.18773
G1 X95.647 Y101.42 E0.20252
G1 X95.839 Y101.585 E0.21094
G1 X96.14 Y101.981 E0.22749
G1 X96.296 Y102.477 E0.24478
G1 X96.245 Y103.17 E0.26789
G1 X95.925 Y103.748 E0.28987
G1 X95.418 Y104.142 E0.31122
G1 X94.754 Y104.312 E0.33402
G1 F1500 E-6.16598
G1 F300 Z0.4
G0 F6000 X94.83 Y126.891 Z0.4
G1 F300 Z0.2
G1 F1500 E0.33402
G1 F600 X94.608 Y126.888 E0.3414
G1 X94.172 Y126.801 E0.35619
G1 X93.962 Y126.716 E0.36373
G1 X93.643 Y126.509 E0.37637
G1 X93.426 Y126.264 E0.38726
G1 X93.178 Y125.834 E0.40377
G1 X93.098 Y125.142 E0.42694
G1 X93.222 Y124.703 E0.44211
G1 X93.463 Y124.268 E0.45865
G1 X93.887 Y123.91 E0.47711
G1 X94.326 Y123.738 E0.49279
G1 X94.677 Y123.695 E0.50455
G1 X95.157 Y123.754 E0.52064
G1 X95.751 Y124.078 E0.54314
G1 X96.139 Y124.579 E0.56422
G1 X96.297 Y125.104 E0.58245
G1 X96.238 Y125.78 E0.60502
G1 X95.995 Y126.228 E0.62197
G1 X95.842 Y126.412 E0.62993
G1 X95.532 Y126.659 E0.64312
G1 X95.306 Y126.771 E0.65151
G1 X94.83 Y126.891 E0.66783
G1 F1500 E-5.83217
G1 F300 Z0.4
G0 F6000 X123.4 Y134.9 Z0.4
G1 F300 Z0.2
G1 F1500 E0.66783
G1 F600 X123.4 Y128.377 E0.88479
G1 X123.52 Y128.139 E0.89365
G1 X123.717 Y127.97 E0.90229
G1 X123.919 Y127.9 E0.9094
G1 X137.474 Y127.899 E1.36024
G1 X137.663 Y127.851 E1.36672
G1 X137.846 Y127.682 E1.37501
G1 X137.899 Y127.476 E1.38208
G1 X137.899 Y100.526 E2.27844
G1 X137.852 Y100.336 E2.28495
G1 X137.682 Y100.154 E2.29324
G1 X137.476 Y100.101 E2.30031
G1 X92.458 Y100.101 E3.79762
G1 X92.353 Y100.136 E3.8013
G1 X92.154 Y100.319 E3.81029
G1 X92.101 Y100.524 E3.81733
G1 X92.102 Y127.488 E4.71416
G1 X92.13 Y127.634 E4.7191
G1 X92.214 Y127.771 E4.72445
G1 X92.424 Y127.897 E4.73259
G1 X106 Y127.9 E5.18413
G1 X106.283 Y127.97 E5.19383
G1 X106.48 Y128.139 E5.20246
G1 X106.6 Y128.378 E5.21136
G1 X106.6 Y134.9 E5.42828
G1 X123.4 Y134.9 E5.98705
G1 F1500 E-0.51295
G1 F300 Z0.4
G0 F6000 X130.681 Y125.594 Z0.4
G1 F300 Z0.2
G1 F1500 E5.98705
G1 F600 X99.409 Y125.598 E7.02716
G1 X98.993 Y125.553 E7.04108
G1 X98.384 Y125.37 E7.06223
G1 X97.836 Y124.997 E7.08428
G1 X97.49 Y124.657 E7.10041
G1 X97.209 Y124.233 E7.11733
G1 X96.968 Y123.644 E7.1385
G1 X96.905 Y123.173 E7.1543
G1 X96.906 Y104.831 E7.76436
G1 X96.966 Y104.346 E7.78061
G1 X97.196 Y103.795 E7.80047
G1 X97.487 Y103.348 E7.81821
G1 X97.845 Y102.99 E7.83505
G1 X98.38 Y102.631 E7.85648
G1 X99.012 Y102.445 E7.87839
G1 X99.404 Y102.402 E7.89151
G1 X130.668 Y102.406 E8.93135
G1 X131.154 Y102.466 E8.94764
G1 X131.722 Y102.702 E8.9681
G1 X132.133 Y102.977 E8.98454
G1 X132.509 Y103.343 E9.002
G1 X132.871 Y103.887 E9.02373
G1 X133.045 Y104.465 E9.04381
G1 X133.099 Y104.91 E9.05872
G1 X133.099 Y123.091 E9.66342
G1 X133.052 Y123.514 E9.67757
G1 X132.868 Y124.121 E9.69867
G1 X132.514 Y124.649 E9.71981
G1 X132.133 Y125.024 E9.73759
G1 X131.732 Y125.294 E9.75367
G1 X131.155 Y125.534 E9.77446
G1 X130.681 Y125.594 E9.79035
G1 F1500 E3.29035
G1 F300 Z0.4
G0 F6000 X135.208 Y126.888 Z0.4
G1 F300 Z0.2
G1 F1500 E9.79035
G1 F600 X134.772 Y126.801 E9.80514
G1 X134.562 Y126.716 E9.81267
G1 X134.247 Y126.512 E9.82515
G1 X133.973 Y126.205 E9.83884
G1 X133.777 Y125.816 E9.85333
G1 X133.699 Y125.144 E9.87583
G1 X133.839 Y124.651 E9.89287
G1 X134.067 Y124.266 E9.90776
G1 X134.477 Y123.921 E9.92558
G1 X134.931 Y123.735 E9.9419
G1 X135.319 Y123.701 E9.95485
G1 X135.756 Y123.754 E9.96949
G1 X136.247 Y124.02 E9.98807
G1 X136.439 Y124.185 E9.99649
G1 X136.742 Y124.584 E10.01315
G1 X136.895 Y125.073 E10.03019
G1 X136.844 Y125.769 E10.0534
G1 X136.537 Y126.335 E10.07482
G1 X136.132 Y126.659 E10.09207
G1 X135.906 Y126.771 E10.10046
G1 X135.43 Y126.891 E10.11678
G1 X135.208 Y126.888 E10.12417
G1 F1500 E3.62417
G1 F300 Z0.4
G0 F6000 X135.342 Y104.315 Z0.4
G1 F300 Z0.2
G1 F1500 E10.12417
G1 F600 X134.771 Y104.201 E10.14354
G1 X134.557 Y104.113 E10.15123
G1 X134.249 Y103.907 E10.16356
G1 X133.974 Y103.607 E10.17709
G1 X133.776 Y103.214 E10.19173
G1 X133.696 Y102.573 E10.21321
G1 X133.841 Y102.046 E10.23139
G1 X134.068 Y101.664 E10.24617
G1 X134.488 Y101.309 E10.26446
G1 X134.928 Y101.138 E10.28016
G1 X135.274 Y101.1 E10.29174
G1 X135.642 Y101.14 E10.30405
G1 X135.856 Y101.208 E10.31152
G1 X136.352 Y101.477 E10.33029
G1 X136.741 Y101.982 E10.35149
G1 X136.895 Y102.473 E10.3686
G1 X136.844 Y103.169 E10.39182
G1 X136.595 Y103.628 E10.40918
G1 X136.442 Y103.812 E10.41714
G1 X136.132 Y104.059 E10.43033
G1 X135.906 Y104.171 E10.43872
G1 X135.342 Y104.315 E10.45808
G0 F6000 X135.322 Y103.903
;TYPE:WALL-OUTER
G1 F600 X134.813 Y103.802 E10.47534
G1 X134.51 Y103.603 E10.48739
G1 X134.295 Y103.356 E10.49828
G1 X134.165 Y103.099 E10.50786
G1 X134.106 Y102.576 E10.52537
G1 X134.213 Y102.193 E10.5386
G1 X134.38 Y101.925 E10.5491
G1 X134.696 Y101.658 E10.56286
G1 X135.041 Y101.527 E10.57513
G1 X135.299 Y101.501 E10.58376
G1 X135.631 Y101.542 E10.59488
G1 X136.091 Y101.791 E10.61228
G1 X136.382 Y102.172 E10.62823
G1 X136.492 Y102.525 E10.64052
G1 X136.452 Y103.052 E10.6581
G1 X136.224 Y103.474 E10.67405
G1 X135.848 Y103.773 E10.69003
G1 X135.322 Y103.903 E10.70805
G1 F1500 E4.20805
G1 F300 Z0.4
G0 F6000 X130.631 Y125.197 Z0.4
G1 F300 Z0.2
G1 F1500 E10.70805
G1 F600 X99.384 Y125.197 E11.74733
G1 X99.055 Y125.154 E11.75837
G1 X98.559 Y125.005 E11.77559
G1 X98.094 Y124.691 E11.79426
G1 X97.789 Y124.384 E11.80865
G1 X97.562 Y124.044 E11.82225
G1 X97.356 Y123.547 E11.84014
G1 X97.303 Y123.129 E11.85415
G1 X97.303 Y104.879 E12.46115
G1 X97.356 Y104.451 E12.4755
G1 X97.556 Y103.968 E12.49288
G1 X97.812 Y103.589 E12.5081
G1 X98.087 Y103.314 E12.52103
G1 X98.55 Y102.998 E12.53968
G1 X99.081 Y102.839 E12.55811
G1 X99.379 Y102.803 E12.56809
G1 X130.619 Y102.803 E13.60714
G1 X131.05 Y102.856 E13.62158
G1 X131.548 Y103.067 E13.63957
G1 X131.893 Y103.297 E13.65336
G1 X132.211 Y103.617 E13.66837
G1 X132.498 Y104.047 E13.68556
G1 X132.657 Y104.565 E13.70359
G1 X132.699 Y104.91 E13.71515
G1 X132.699 Y123.091 E14.31985
G1 X132.654 Y123.445 E14.33172
G1 X132.504 Y123.943 E14.34902
G1 X132.191 Y124.406 E14.3676
G1 X131.884 Y124.711 E14.382
G1 X131.554 Y124.931 E14.39519
G1 X131.031 Y125.147 E14.41401
G1 X130.631 Y125.197 E14.42742
G1 F1500 E7.92742
G1 F300 Z0.4
G0 F6000 X135.33 Y126.505 Z0.4
G1 F300 Z0.2
G1 F1500 E14.42742
G1 F600 X134.812 Y126.401 E14.44499
G1 X134.491 Y126.185 E14.45786
G1 X134.295 Y125.955 E14.46791
G1 X134.165 Y125.698 E14.47749
G1 X134.101 Y125.188 E14.49458
G1 X134.209 Y124.804 E14.50785
G1 X134.394 Y124.513 E14.51932
G1 X134.7 Y124.258 E14.53257
G1 X135.05 Y124.126 E14.54501
G1 X135.289 Y124.1 E14.553
G1 X135.631 Y124.141 E14.56446
G1 X136.094 Y124.393 E14.58199
G1 X136.382 Y124.772 E14.59783
G1 X136.492 Y125.125 E14.61012
G1 X136.452 Y125.652 E14.6277
G1 X136.224 Y126.073 E14.64363
G1 X135.849 Y126.372 E14.65958
G1 X135.33 Y126.505 E14.6774
G1 F1500 E8.1774
G1 F300 Z0.4
G0 F6000 X123.8 Y135.3 Z0.4
G1 F300 Z0.2
G1 F1500 E14.6774
G1 F600 X123.8 Y128.457 E14.905
G1 X123.84 Y128.379 E14.90791
G1 X123.965 Y128.302 E14.9128
G1 X137.523 Y128.299 E15.36374
G1 X137.837 Y128.221 E15.3745
G1 X138.093 Y128.032 E15.38508
G1 X138.217 Y127.847 E15.39249
G1 X138.299 Y127.526 E15.40351
G1 X138.299 Y100.477 E16.30316
G1 X138.221 Y100.163 E16.31392
G1 X138.032 Y99.907 E16.32451
G1 X137.847 Y99.783 E16.33191
G1 X137.526 Y99.701 E16.34293
G1 X92.394 Y99.701 E17.84403
G1 X92.167 Y99.776 E17.85198
G1 X91.907 Y99.968 E17.86273
G1 X91.783 Y100.153 E17.87014
G1 X91.701 Y100.474 E17.88116
G1 X91.702 Y127.528 E18.78098
G1 X91.75 Y127.771 E18.78922
G1 X91.955 Y128.083 E18.80163
G1 X92.234 Y128.25 E18.81245
G1 X92.472 Y128.298 E18.82052
G1 X106.077 Y128.3 E19.27303
G1 X106.2 Y128.458 E19.27969
G1 X106.2 Y135.3 E19.50725
G1 X123.8 Y135.3 E20.09263
G1 F1500 E13.59263
G1 F300 Z0.4
G0 F6000 X94.73 Y126.505 Z0.4
G1 F300 Z0.2
G1 F1500 E20.09263
G1 F600 X94.212 Y126.401 E20.1102
G1 X93.891 Y126.185 E20.12307
G1 X93.695 Y125.955 E20.13312
G1 X93.562 Y125.676 E20.1434
G1 X93.501 Y125.187 E20.15979
G1 X93.607 Y124.812 E20.17275
G1 X93.779 Y124.526 E20.18385
G1 X94.096 Y124.257 E20.19768
G1 X94.45 Y124.126 E20.21024
G1 X94.662 Y124.1 E20.21734
G1 X95.03 Y124.141 E20.22966
G1 X95.491 Y124.391 E20.2471
G1 X95.786 Y124.785 E20.26347
G1 X95.888 Y125.119 E20.27508
G1 X95.851 Y125.656 E20.29299
G1 X95.623 Y126.074 E20.30882
G1 X95.249 Y126.372 E20.32473
G1 X94.73 Y126.505 E20.34255
G1 F1500 E13.84255
G1 F300 Z0.4
G0 F6000 X94.735 Y103.904 Z0.4
G1 F300 Z0.2
G1 F1500 E20.34255
G1 F600 X94.212 Y103.802 E20.36027
G1 X93.891 Y103.585 E20.37316
G1 X93.695 Y103.355 E20.38321
G1 X93.562 Y103.076 E20.39349
G1 X93.502 Y102.582 E20.41004
G1 X93.607 Y102.212 E20.42283
G1 X93.779 Y101.926 E20.43393
G1 X94.095 Y101.658 E20.44771
G1 X94.441 Y101.527 E20.46002
G1 X94.699 Y101.501 E20.46864
G1 X95.031 Y101.542 E20.47977
G1 X95.494 Y101.793 E20.49729
G1 X95.784 Y102.176 E20.51327
G1 X95.889 Y102.529 E20.52551
G1 X95.853 Y103.045 E20.54272
G1 X95.625 Y103.473 E20.55885
G1 X95.245 Y103.773 E20.57495
G1 X94.735 Y103.904 E20.59246
G1 F1500 E14.09246
G1 F300 Z0.4
G0 F6000 X135.341 Y104.682 Z0.4
;TYPE:SKIN
G1 F300 Z0.2
G1 F1500 E20.59246
G1 F600 X135.99 Y104.522 E20.6147
G1 X136.363 Y104.336 E20.62856
G1 X136.659 Y104.101 E20.64113
G1 X136.893 Y103.825 E20.65316
G1 F601.5 X137.096 Y103.455 E20.66717
G1 F626.6 X137.189 Y103.152 E20.67726
G1 F661.2 X137.228 Y102.426 E20.69921
G1 F633.2 X137.121 Y101.993 E20.71326
G1 F600 X136.982 Y101.71 E20.72375
G1 X136.68 Y101.312 E20.74036
G1 X136.417 Y101.101 E20.75158
G1 X136.032 Y100.893 E20.76613
G1 F625 X135.717 Y100.806 E20.77657
G1 F678 X135.292 Y100.77 E20.78912
G1 X134.824 Y100.808 E20.80294
G1 F625 X134.303 Y100.992 E20.82059
G1 F600 X133.788 Y101.429 E20.84305
G1 X133.503 Y101.918 E20.86188
G1 X133.327 Y102.524 E20.88286
G1 F597 X133.424 Y103.326 E20.90987
G1 F601.5 X133.552 Y103.563 E20.9188
G1 F594.1 X133.658 Y103.799 E20.9275
G1 F589.7 X133.996 Y104.164 E20.94433
G1 F600 X134.361 Y104.415 E20.95906
G1 X134.701 Y104.556 E20.97131
G1 X135.341 Y104.682 E20.993
G1 F1500 E14.493
G1 F300 Z0.4
G0 F6000 X130.729 Y125.952 Z0.4
G1 F300 Z0.2
G1 F1500 E20.993
G1 F600 X131.229 Y125.889 E21.00976
G1 X131.88 Y125.622 E21.03317
G1 X132.396 Y125.279 E21.05377
G1 X132.787 Y124.887 E21.07219
G1 F601.5 X133.2 Y124.276 E21.09666
G1 X133.399 Y123.596 E21.12016
G1 F600 X133.458 Y123.108 E21.13651
G1 X133.46 Y104.904 E21.74198
G1 X133.41 Y104.442 E21.75744
G1 F589.7 X133.274 Y103.95 E21.77471
G1 F592.6 X133.187 Y103.705 E21.78347
G1 F603 X132.808 Y103.138 E21.80604
G1 F600 X132.408 Y102.733 E21.82497
G1 X131.908 Y102.392 E21.8451
G1 X131.243 Y102.113 E21.86908
G1 X130.716 Y102.048 E21.88674
G1 X99.284 Y102.048 E22.93218
G1 X98.93 Y102.094 E22.94405
G1 X98.225 Y102.3 E22.96848
G1 X97.622 Y102.705 E22.99264
G1 X97.222 Y103.104 E23.01143
G1 F595.5 X96.889 Y103.59 E23.03117
G1 F588.2 X96.623 Y104.183 E23.05322
G1 F592.6 X96.548 Y104.784 E23.07362
G1 F600 X96.547 Y123.217 E23.6867
G1 F598.5 X96.624 Y123.77 E23.70532
G1 F594.1 X96.884 Y124.391 E23.72793
G1 F595.5 X97.212 Y124.887 E23.74786
G1 F600 X97.587 Y125.258 E23.7654
G1 X98.227 Y125.702 E23.79131
G1 X98.891 Y125.9 E23.81436
G1 X99.296 Y125.952 E23.82794
G1 X130.729 Y125.952 E24.8734
G1 F1500 E18.3734
G1 F300 Z0.4
G0 F6000 X106.961 Y134.54 Z0.4
G1 F300 Z0.2
G1 F1500 E24.8734
G1 F600 X106.959 Y128.478 E25.07503
G1 X106.925 Y128.229 E25.08339
G1 X106.77 Y127.916 E25.095
G1 X106.453 Y127.646 E25.10885
G1 X106.042 Y127.545 E25.12293
G1 X95.441 Y127.537 E25.47552
G1 F449.4 X94.821 Y127.403 E25.50368
G1 X95.39 Y127.123 E25.53184
G1 F600 X95.763 Y126.937 E25.54571
G1 X96.09 Y126.672 E25.55971
G1 X96.295 Y126.425 E25.57038
G1 X96.6 Y125.87 E25.59144
G1 X96.659 Y125.044 E25.61899
G1 F598.5 X96.458 Y124.395 E25.64164
G1 F597 X95.981 Y123.79 E25.66739
G1 F600 X95.399 Y123.479 E25.68934
G1 X95.124 Y123.39 E25.69896
G1 X94.667 Y123.336 E25.71426
G1 X94.262 Y123.385 E25.72783
G1 X93.849 Y123.538 E25.74248
G1 X93.575 Y123.699 E25.75305
G1 X93.176 Y124.038 E25.77046
G1 X92.872 Y124.613 E25.79209
G1 F444.4 X92.602 Y125.05 E25.81516
G1 X92.462 Y124.556 E25.83821
G1 F604.5 X92.459 Y114.006 E26.18648
G1 F613.8 X92.456 Y103.456 E26.52948
G1 F643.4 X92.44 Y102.939 E26.54552
G1 F466.9 X92.595 Y102.542 E26.56373
G1 X92.797 Y102.917 E26.58194
G1 F657.5 X92.837 Y103.336 E26.59471
G1 F621.8 X93.092 Y103.83 E26.61256
G1 F600 X93.409 Y104.187 E26.62844
G1 X93.768 Y104.419 E26.64265
G1 X94.071 Y104.545 E26.65357
G1 X94.654 Y104.658 E26.67332
G1 X94.937 Y104.633 E26.68277
G1 X95.574 Y104.474 E26.7046
G1 X96.065 Y104.095 E26.72523
G1 F578.3 X96.295 Y103.863 E26.73651
G1 F575.5 X96.602 Y103.277 E26.75945
G1 F598.5 X96.657 Y102.423 E26.78798
G1 F600 X96.465 Y101.813 E26.80925
G1 X96.128 Y101.368 E26.82782
G1 X95.817 Y101.101 E26.84145
G1 X95.43 Y100.892 E26.85608
G1 F625 X95.117 Y100.806 E26.86644
G1 F678 X94.692 Y100.77 E26.879
G1 X94.224 Y100.808 E26.89282
G1 F625 X93.702 Y100.993 E26.9105
G1 F600 X93.267 Y101.369 E26.92962
G1 X92.942 Y101.812 E26.9479
G1 F510.6 X92.772 Y102.129 E26.96196
G1 F392.8 X92.602 Y102.447 E26.98028
G1 F443.6 X92.462 Y101.813 E27.00948
G1 F600 X92.461 Y100.508 E27.05289
G1 X92.536 Y100.461 E27.05583
G1 X93.635 Y100.462 E27.09238
G1 F648.6 X94.638 Y100.431 E27.12326
G1 F685.7 X95.098 Y100.441 E27.13665
G1 F634.9 X95.461 Y100.46 E27.14807
G1 F603 X134.235 Y100.462 E28.43125
G1 F648.6 X135.238 Y100.431 E28.46213
G1 F685.7 X135.698 Y100.441 E28.47552
G1 F634.9 X136.063 Y100.46 E28.487
G1 F604.5 X137.479 Y100.461 E28.53375
G1 F601.5 X137.539 Y100.587 E28.53838
G1 F600 X137.539 Y101.93 E28.58305
G1 F646.9 X137.568 Y102.453 E28.5992
G1 F648.6 X137.54 Y103.566 E28.63346
G1 F601.5 X137.539 Y124.525 E29.32881
G1 F646.9 X137.568 Y125.053 E29.34513
G1 F648.6 X137.54 Y126.164 E29.37932
G1 F603 X137.539 Y127.477 E29.42277
G1 F601.5 X137.413 Y127.539 E29.42743
G1 F600 X136.041 Y127.539 E29.47306
G1 F448.6 X135.421 Y127.404 E29.50129
G1 X136.032 Y127.107 E29.53151
G1 F600 X136.326 Y126.959 E29.54246
G1 X136.704 Y126.664 E29.55841
G1 X136.896 Y126.426 E29.56858
G1 F601.5 X137.096 Y126.054 E29.58259
G1 F626.6 X137.189 Y125.752 E29.59265
G1 F661.2 X137.228 Y125.026 E29.6146
G1 F633.2 X137.121 Y124.588 E29.62881
G1 F600 X136.984 Y124.312 E29.63905
G1 X136.728 Y123.968 E29.65332
G1 X136.417 Y123.701 E29.66695
G1 X136.028 Y123.492 E29.68164
G1 X135.725 Y123.39 E29.69227
G1 X135.314 Y123.342 E29.70603
G1 X134.844 Y123.382 E29.72172
G1 X134.301 Y123.604 E29.74123
G1 X133.787 Y124.03 E29.76344
G1 F597 X133.494 Y124.543 E29.78319
G1 F598.5 X133.331 Y125.134 E29.80363
G1 F600 X133.428 Y125.92 E29.82997
G1 X133.671 Y126.405 E29.84801
