;FLAVOR:Marlin
;TIME:1398
;Filament used: 0.788775m
;Layer height: 0.2
;MINX:91.704
;MINY:99.704
;MINZ:0.2
;MAXX:138.3
;MAXY:135.3
;MAXZ:8.2
;TARGET_MACHINE.NAME:Creality Ender-3 Pro
;Generated with Cura_SteamEngine 5.6.0
M140 S65
M105
M190 S65
M104 S235
M105
M109 S235
M82 ;absolute extrusion mode
M117 Antiblob retract...
G92 E0 ; Reset Extruder distance to 0
G1 E-3 ; Retracts filament to prevent blobs during probing
G92 E0 ; Reset Extruder distance to 0
M117 Homing...
G28 ; home all axes
M117 Generating mesh...
G29; auto bed leveling
M117 Heaters Stabilizing...
G4 S5; wait for heaters to recover
M117 Purging extruder...
G92 E0     ; reset extruder
G1 Z1.0 F3000    ; move z up little to prevent scratching of surface
G1 X0.1 Y40 Z0.3 F5000.0  ; move to start-line position
G1 X0.1 Y100.0 Z0.3 F500.0 E15  ; draw 1st line
G1 X0.4 Y100.0 Z0.3 F5000.0  ; move to side a little
G1 X0.4 Y40 Z0.3 F500.0 E30  ; draw 2nd line
G92 E0     ; reset extruder
G1 Z1.0 F3000    ; move z up little to prevent scratching of surface
M117 Making Magic...
G92 E0
G92 E0
G1 F1500 E-6.5
;LAYER_COUNT:40
;LAYER:0
M107
G1 F300 Z0.4
;MESH:CameraPlate_v2.stl
G0 F6000 X94.751 Y104.311 Z0.4
;TYPE:WALL-INNER
G1 F300 Z0.2
G1 F1500 E0
G1 F600 X94.171 Y104.201 E0.01963
G1 X93.963 Y104.116 E0.02711
G1 X93.643 Y103.909 E0.03978
G1 X93.372 Y103.602 E0.0534
G1 X93.178 Y103.222 E0.06759
G1 X93.096 Y102.557 E0.08988
G1 X93.243 Y102.027 E0.10817
G1 X93.476 Y101.656 E0.12274
G1 X93.9 Y101.304 E0.14107
G1 X94.327 Y101.139 E0.1563
G1 X94.674 Y101.095 E0.16793
G1 X95.042 Y101.14 E0.18026
G1 X95.256 Y101.208 E0.18773
G1 X95.647 Y101.42 E0.20253
G1 X95.839 Y101.585 E0.21095
G1 X96.145 Y101.989 E0.2278
G1 X96.292 Y102.472 E0.24459
G1 X96.246 Y103.168 E0.26779
G1 X95.931 Y103.734 E0.28934
G1 X95.433 Y104.139 E0.31069
G1 X94.751 Y104.311 E0.33408
G1 F1500 E-6.16592
G1 F300 Z0.4
G0 F6000 X94.755 Y126.911 Z0.4
G1 F300 Z0.2
G1 F1500 E0.33408
G1 F600 X94.072 Y126.78 E0.35721
G1 X93.661 Y126.522 E0.37335
G1 X93.369 Y126.198 E0.38786
G1 X93.187 Y125.84 E0.40122
G1 X93.093 Y125.162 E0.42398
G1 X93.222 Y124.703 E0.43984
G1 X93.463 Y124.268 E0.45638
G1 X93.888 Y123.909 E0.47488
G1 X94.328 Y123.737 E0.4906
G1 X94.685 Y123.696 E0.50255
G1 X95.16 Y123.76 E0.51849
G1 X95.758 Y124.079 E0.54103
G1 X96.146 Y124.593 E0.56245
G1 X96.297 Y125.083 E0.57951
G1 X96.242 Y125.76 E0.6021
G1 X95.995 Y126.228 E0.6197
G1 X95.841 Y126.412 E0.62768
G1 X95.531 Y126.659 E0.64086
G1 X95.306 Y126.771 E0.64922
G1 X94.755 Y126.911 E0.66813
G1 F1500 E-5.83187
G1 F300 Z0.4
G0 F6000 X106.818 Y134.846 Z0.4
G1 F300 Z0.2
G1 F1500 E0.66813
G1 F600 X107.024 Y134.899 E0.6752
G1 X122.981 Y134.898 E1.20594
G1 X123.257 Y134.793 E1.21576
G1 X123.349 Y134.669 E1.22089
G1 X123.399 Y134.475 E1.22756
G1 X123.401 Y129.391 E1.39665
G1 X123.49 Y128.943 E1.41184
G1 X123.795 Y128.43 E1.43169
G1 X124.119 Y128.167 E1.44557
G1 X124.456 Y127.987 E1.45828
G1 X124.887 Y127.901 E1.4729
G1 X135.146 Y127.896 E1.81411
G1 X135.498 Y127.86 E1.82588
G1 X135.851 Y127.772 E1.83798
G1 X136.102 Y127.682 E1.84685
G1 X136.426 Y127.528 E1.85878
G1 X136.787 Y127.288 E1.8732
G1 X137.049 Y127.049 E1.885
G1 X137.293 Y126.782 E1.89703
G1 X137.525 Y126.433 E1.91097
G1 X137.682 Y126.1 E1.92321
G1 X137.795 Y125.785 E1.93434
G1 X137.869 Y125.416 E1.94686
G1 X137.896 Y125.146 E1.95588
G1 X137.896 Y102.787 E2.69955
G1 X137.845 Y102.446 E2.71101
G1 X137.769 Y102.143 E2.7214
G1 X137.679 Y101.892 E2.73027
G1 X137.532 Y101.579 E2.74177
G1 X137.299 Y101.227 E2.75581
G1 X137.052 Y100.955 E2.76803
G1 X136.791 Y100.717 E2.77978
G1 X136.431 Y100.474 E2.79423
G1 X136.11 Y100.322 E2.80604
G1 X135.789 Y100.206 E2.81739
G1 X135.424 Y100.133 E2.82977
G1 X135.152 Y100.105 E2.83887
G1 X94.862 Y100.104 E4.17892
G1 X94.507 Y100.139 E4.19078
G1 X94.173 Y100.224 E4.20225
G1 X93.878 Y100.326 E4.21263
G1 X93.583 Y100.466 E4.22349
G1 X93.22 Y100.709 E4.23802
G1 X92.955 Y100.947 E4.24987
G1 X92.718 Y101.209 E4.26162
G1 X92.478 Y101.565 E4.2759
G1 X92.322 Y101.891 E4.28792
G1 X92.206 Y102.211 E4.29924
G1 X92.104 Y102.737 E4.31706
G1 X92.104 Y125.145 E5.06235
G1 X92.14 Y125.498 E5.07415
G1 X92.263 Y125.983 E5.09079
G1 X92.445 Y126.37 E5.10502
G1 X92.586 Y126.604 E5.11411
G1 X92.757 Y126.835 E5.12366
G1 X92.945 Y127.043 E5.13299
G1 X93.164 Y127.241 E5.14281
G1 X93.415 Y127.423 E5.15312
G1 X93.629 Y127.553 E5.16145
G1 X93.894 Y127.679 E5.17121
G1 X94.214 Y127.794 E5.18252
G1 X94.581 Y127.868 E5.19497
G1 X94.848 Y127.896 E5.2039
G1 X105.051 Y127.901 E5.54325
G1 X105.462 Y127.96 E5.55706
G1 X105.905 Y128.169 E5.57335
G1 X106.331 Y128.592 E5.59332
G1 X106.539 Y129.033 E5.60954
G1 X106.599 Y129.447 E5.62345
G1 X106.601 Y134.474 E5.79065
G1 X106.649 Y134.663 E5.79714
G1 X106.818 Y134.846 E5.80542
G1 F1500 E-0.69458
G1 F300 Z0.4
G0 F6000 X129.707 Y125.594 Z0.4
G1 F300 Z0.2
G1 F1500 E5.80542
G1 F600 X100.478 Y125.6 E6.77758
G1 X100.183 Y125.585 E6.78741
G1 X99.778 Y125.526 E6.80102
G1 X99.433 Y125.437 E6.81287
G1 X99.101 Y125.317 E6.82461
G1 X98.785 Y125.165 E6.83627
G1 X98.396 Y124.927 E6.85144
G1 X98.064 Y124.653 E6.86576
G1 X97.856 Y124.443 E6.87559
G1 X97.588 Y124.125 E6.88942
G1 X97.281 Y123.631 E6.90877
G1 X97.102 Y123.19 E6.9246
G1 X97.002 Y122.852 E6.93632
G1 X96.935 Y122.507 E6.94801
G1 X96.906 Y122.217 E6.9577
G1 X96.901 Y105.942 E7.49901
G1 X96.916 Y105.667 E7.50817
G1 X96.962 Y105.33 E7.51949
G1 X97.045 Y104.986 E7.53126
G1 X97.224 Y104.499 E7.54851
G1 X97.424 Y104.129 E7.5625
G1 X97.629 Y103.827 E7.57464
G1 X97.854 Y103.558 E7.58631
G1 X98.101 Y103.315 E7.59783
G1 X98.375 Y103.093 E7.60956
G1 X98.625 Y102.926 E7.61956
G1 X98.991 Y102.731 E7.63335
G1 X99.314 Y102.599 E7.64496
G1 X99.599 Y102.514 E7.65485
G1 X99.959 Y102.438 E7.66709
G1 X100.302 Y102.406 E7.67854
G1 X129.523 Y102.4 E8.65044
G1 X129.833 Y102.416 E8.66076
G1 X130.229 Y102.475 E8.67408
G1 X130.665 Y102.589 E8.68907
G1 X131.065 Y102.758 E8.70351
G1 X131.375 Y102.926 E8.71524
G1 X131.669 Y103.126 E8.72707
G1 X131.934 Y103.345 E8.7385
G1 X132.192 Y103.609 E8.75078
G1 X132.372 Y103.828 E8.76021
G1 X132.604 Y104.177 E8.77414
G1 X132.769 Y104.491 E8.78594
G1 X132.901 Y104.814 E8.79755
G1 X132.986 Y105.099 E8.80744
G1 X133.068 Y105.51 E8.82138
G1 X133.097 Y105.855 E8.83289
G1 X133.1 Y122.022 E9.37061
G1 X133.085 Y122.317 E9.38043
G1 X133.025 Y122.722 E9.39405
G1 X132.949 Y123.032 E9.40467
G1 X132.818 Y123.398 E9.4176
G1 X132.663 Y123.72 E9.42948
G1 X132.455 Y124.067 E9.44294
G1 X132.151 Y124.437 E9.45887
G1 X131.94 Y124.648 E9.46879
G1 X131.55 Y124.965 E9.48551
G1 X131.094 Y125.232 E9.50308
G1 X130.694 Y125.397 E9.51747
G1 X130.351 Y125.498 E9.52937
G1 X130.043 Y125.56 E9.53982
G1 X129.707 Y125.594 E9.55105
G1 F1500 E3.05105
G1 F300 Z0.4
G0 F6000 X135.341 Y126.915 Z0.4
G1 F300 Z0.2
G1 F1500 E9.55105
G1 F600 X134.771 Y126.801 E9.57038
G1 X134.561 Y126.716 E9.57792
G1 X134.246 Y126.511 E9.59042
G1 X133.974 Y126.205 E9.60403
G1 X133.777 Y125.823 E9.61833
G1 X133.694 Y125.156 E9.64069
G1 X133.851 Y124.611 E9.65955
G1 X134.075 Y124.258 E9.67345
G1 X134.482 Y123.916 E9.69114
G1 X134.905 Y123.749 E9.70626
G1 X135.262 Y123.694 E9.71828
G1 X135.642 Y123.74 E9.73101
G1 X135.856 Y123.808 E9.73848
G1 X136.247 Y124.02 E9.75327
G1 X136.439 Y124.185 E9.76169
G1 X136.746 Y124.591 E9.77862
G1 X136.893 Y125.074 E9.79541
G1 X136.856 Y125.638 E9.81421
G1 X136.802 Y125.851 E9.82152
G1 X136.54 Y126.326 E9.83956
G1 X136.091 Y126.69 E9.85879
G1 X135.918 Y126.771 E9.86514
G1 X135.341 Y126.915 E9.88492
G1 F1500 E3.38492
G1 F300 Z0.4
G0 F6000 X135.342 Y104.315 Z0.4
G1 F300 Z0.2
G1 F1500 E9.88492
G1 F600 X134.651 Y104.174 E9.90838
G1 X134.257 Y103.915 E9.92406
G1 X133.999 Y103.631 E9.93682
G1 X133.781 Y103.236 E9.95182
G1 X133.694 Y102.56 E9.97449
G1 X133.822 Y102.101 E9.99034
G1 X134.063 Y101.668 E10.00683
G1 X134.488 Y101.309 E10.02533
G1 X134.924 Y101.139 E10.04089
G1 X135.273 Y101.096 E10.05259
G1 X135.754 Y101.152 E10.0687
G1 X136.359 Y101.483 E10.09163
G1 X136.733 Y101.971 E10.11208
G1 X136.898 Y102.48 E10.12988
G1 X136.842 Y103.171 E10.15294
G1 X136.596 Y103.628 E10.1702
G1 X136.442 Y103.812 E10.17818
G1 X136.132 Y104.059 E10.19136
G1 X135.906 Y104.171 E10.19975
G1 X135.342 Y104.315 E10.21911
G0 F6000 X135.321 Y103.903
;TYPE:WALL-OUTER
G1 F600 X134.829 Y103.804 E10.2358
G1 X134.512 Y103.606 E10.24824
G1 X134.315 Y103.385 E10.25808
G1 X134.168 Y103.1 E10.26875
G1 X134.105 Y102.583 E10.28607
G1 X134.207 Y102.211 E10.2989
G1 X134.379 Y101.926 E10.30997
G1 X134.695 Y101.658 E10.32375
G1 X135.041 Y101.527 E10.33606
G1 X135.259 Y101.5 E10.34336
G1 X135.632 Y101.541 E10.35585
G1 X136.095 Y101.799 E10.37347
G1 X136.383 Y102.172 E10.38915
G1 X136.492 Y102.526 E10.40147
G1 X136.452 Y103.051 E10.41898
G1 X136.226 Y103.472 E10.43487
G1 X135.848 Y103.773 E10.45094
G1 X135.321 Y103.903 E10.469
G1 F1500 E3.969
G1 F300 Z0.4
G0 F6000 X129.669 Y125.196 Z0.4
G1 F300 Z0.2
G1 F1500 E10.469
G1 F600 X100.498 Y125.2 E11.43923
G1 X100.184 Y125.183 E11.44969
G1 X99.874 Y125.137 E11.46011
G1 X99.585 Y125.066 E11.47001
G1 X99.291 Y124.963 E11.48037
G1 X98.989 Y124.821 E11.49147
G1 X98.648 Y124.617 E11.50469
G1 X98.364 Y124.386 E11.51686
G1 X98.14 Y124.161 E11.52742
G1 X97.878 Y123.844 E11.5411
G1 X97.634 Y123.435 E11.55694
G1 X97.485 Y123.074 E11.56993
G1 X97.394 Y122.772 E11.58042
G1 X97.333 Y122.467 E11.59077
G1 X97.304 Y122.177 E11.60046
G1 X97.3 Y106.009 E12.13821
G1 X97.318 Y105.67 E12.1495
G1 X97.358 Y105.388 E12.15897
G1 X97.433 Y105.083 E12.16942
G1 X97.566 Y104.712 E12.18253
G1 X97.756 Y104.351 E12.1961
G1 X97.926 Y104.097 E12.20626
G1 X98.124 Y103.855 E12.21666
G1 X98.355 Y103.624 E12.22753
G1 X98.597 Y103.426 E12.23793
G1 X98.847 Y103.259 E12.24793
G1 X99.146 Y103.1 E12.25919
G1 X99.408 Y102.99 E12.26864
G1 X99.713 Y102.898 E12.27924
G1 X100.028 Y102.832 E12.28994
G1 X100.338 Y102.804 E12.30029
G1 X129.503 Y102.8 E13.27033
G1 X129.831 Y102.818 E13.28125
G1 X130.133 Y102.863 E13.29141
G1 X130.483 Y102.949 E13.30339
G1 X130.877 Y103.111 E13.31756
G1 X131.153 Y103.259 E13.32798
G1 X131.403 Y103.426 E13.33798
G1 X131.65 Y103.627 E13.34857
G1 X131.869 Y103.847 E13.3589
G1 X132.074 Y104.097 E13.36965
G1 X132.241 Y104.348 E13.37968
G1 X132.4 Y104.646 E13.39091
G1 X132.51 Y104.908 E13.40036
G1 X132.602 Y105.213 E13.41096
G1 X132.67 Y105.545 E13.42223
G1 X132.697 Y105.855 E13.43258
G1 X132.7 Y122.002 E13.96963
G1 X132.683 Y122.316 E13.98009
G1 X132.637 Y122.626 E13.99051
G1 X132.56 Y122.934 E14.00107
G1 X132.456 Y123.228 E14.01144
G1 X132.319 Y123.515 E14.02202
G1 X132.124 Y123.842 E14.03468
G1 X131.868 Y124.154 E14.04811
G1 X131.664 Y124.358 E14.0577
G1 X131.344 Y124.622 E14.0715
G1 X130.965 Y124.85 E14.08621
G1 X130.578 Y125.014 E14.10019
G1 X130.272 Y125.106 E14.11082
G1 X129.959 Y125.168 E14.12143
G1 X129.669 Y125.196 E14.13112
G1 F1500 E7.63112
G1 F300 Z0.4
G0 F6000 X135.324 Y126.504 Z0.4
G1 F300 Z0.2
G1 F1500 E14.13112
G1 F600 X134.81 Y126.401 E14.14856
G1 X134.491 Y126.185 E14.16137
G1 X134.295 Y125.956 E14.1714
G1 X134.168 Y125.701 E14.18087
G1 X134.105 Y125.187 E14.1981
G1 X134.213 Y124.795 E14.21162
G1 X134.385 Y124.522 E14.22235
G1 X134.706 Y124.255 E14.23624
G1 X135.05 Y124.126 E14.24846
G1 X135.289 Y124.1 E14.25645
G1 X135.631 Y124.141 E14.26791
G1 X136.094 Y124.393 E14.28544
G1 X136.384 Y124.775 E14.30139
G1 X136.491 Y125.125 E14.31357
G1 X136.447 Y125.657 E14.33132
G1 X136.228 Y126.067 E14.34678
G1 X135.846 Y126.374 E14.36308
G1 X135.324 Y126.504 E14.38097
G1 F1500 E7.88097
G1 F300 Z0.4
G0 F6000 X123.306 Y135.236 Z0.4
G1 F300 Z0.2
G1 F1500 E14.38097
G1 F600 X123.533 Y135.091 E14.38993
G1 X123.717 Y134.845 E14.40015
G1 X123.799 Y134.525 E14.41114
G1 X123.804 Y129.414 E14.58113
G1 X123.869 Y129.089 E14.59215
G1 X124.102 Y128.696 E14.60735
G1 X124.307 Y128.52 E14.61634
G1 X124.593 Y128.367 E14.62712
G1 X124.916 Y128.303 E14.63808
G1 X135.166 Y128.296 E14.97899
G1 X135.567 Y128.255 E14.9924
G1 X135.967 Y128.155 E15.00611
G1 X136.256 Y128.052 E15.01632
G1 X136.623 Y127.878 E15.02983
G1 X137.034 Y127.604 E15.04626
G1 X137.332 Y127.333 E15.05965
G1 X137.609 Y127.03 E15.07331
G1 X137.875 Y126.63 E15.08928
G1 X138.052 Y126.253 E15.10314
G1 X138.181 Y125.893 E15.11586
G1 X138.265 Y125.475 E15.13004
G1 X138.296 Y125.165 E15.1404
G1 X138.296 Y102.757 E15.88569
G1 X138.237 Y102.368 E15.89878
G1 X138.153 Y102.027 E15.91046
G1 X138.049 Y101.739 E15.92064
G1 X137.882 Y101.382 E15.93375
G1 X137.616 Y100.981 E15.94976
G1 X137.336 Y100.672 E15.96363
G1 X137.039 Y100.401 E15.977
G1 X136.63 Y100.126 E15.99339
G1 X136.264 Y99.952 E16.00687
G1 X135.897 Y99.82 E16.01984
G1 X135.484 Y99.737 E16.03385
G1 X135.172 Y99.705 E16.04428
G1 X94.842 Y99.704 E17.38567
G1 X94.438 Y99.744 E17.39917
G1 X94.058 Y99.84 E17.4122
G1 X93.726 Y99.956 E17.4239
G1 X93.385 Y100.117 E17.43644
G1 X92.974 Y100.392 E17.45289
G1 X92.672 Y100.663 E17.46639
G1 X92.402 Y100.961 E17.47976
G1 X92.13 Y101.365 E17.49596
G1 X91.952 Y101.736 E17.50965
G1 X91.82 Y102.103 E17.52262
G1 X91.735 Y102.525 E17.53694
G1 X91.704 Y102.827 E17.54703
G1 X91.704 Y125.165 E18.29
G1 X91.745 Y125.567 E18.30344
G1 X91.845 Y125.967 E18.31715
G1 X91.948 Y126.253 E18.32726
G1 X92.091 Y126.559 E18.3385
G1 X92.254 Y126.828 E18.34896
G1 X92.447 Y127.089 E18.35975
G1 X92.661 Y127.327 E18.3704
G1 X92.91 Y127.551 E18.38154
G1 X93.174 Y127.746 E18.39246
G1 X93.439 Y127.907 E18.40277
G1 X93.74 Y128.049 E18.41384
G1 X94.106 Y128.181 E18.42678
G1 X94.521 Y128.264 E18.44086
G1 X94.828 Y128.296 E18.45112
G1 X105.085 Y128.303 E18.79227
G1 X105.322 Y128.344 E18.80027
G1 X105.671 Y128.501 E18.813
G1 X106 Y128.828 E18.82843
G1 X106.156 Y129.175 E18.84108
G1 X106.197 Y129.414 E18.84915
G1 X106.201 Y134.523 E19.01907
G1 X106.279 Y134.837 E19.02983
G1 X106.468 Y135.093 E19.04042
G1 X106.653 Y135.217 E19.04782
G1 X106.974 Y135.299 E19.05884
G1 X123.025 Y135.298 E19.5927
G1 X123.306 Y135.236 E19.60227
G1 F1500 E13.10227
G1 F300 Z0.4
G0 F6000 X94.728 Y126.504 Z0.4
G1 F300 Z0.2
G1 F1500 E19.60227
G1 F600 X94.209 Y126.4 E19.61988
G1 X93.925 Y126.215 E19.63115
G1 X93.713 Y125.984 E19.64158
G1 X93.565 Y125.703 E19.65214
G1 X93.505 Y125.187 E19.66942
G1 X93.607 Y124.812 E19.68235
G1 X93.779 Y124.526 E19.69345
G1 X94.096 Y124.257 E19.70727
G1 X94.45 Y124.126 E19.71983
G1 X94.662 Y124.1 E19.72693
G1 X95.048 Y124.151 E19.73988
G1 X95.489 Y124.394 E19.75663
G1 X95.774 Y124.763 E19.77214
G1 X95.888 Y125.123 E19.7847
G1 X95.845 Y125.662 E19.80268
G1 X95.624 Y126.074 E19.81823
G1 X95.249 Y126.372 E19.83416
G1 X94.728 Y126.504 E19.85204
G1 F1500 E13.35204
G1 F300 Z0.4
G0 F6000 X94.734 Y103.903 Z0.4
G1 F300 Z0.2
G1 F1500 E19.85204
G1 F600 X94.215 Y103.802 E19.86962
G1 X93.906 Y103.603 E19.88185
G1 X93.694 Y103.354 E19.89273
G1 X93.562 Y103.076 E19.90296
G1 X93.501 Y102.587 E19.91935
G1 X93.621 Y102.175 E19.93362
G1 X93.784 Y101.923 E19.94361
G1 X94.087 Y101.666 E19.95682
G1 X94.409 Y101.536 E19.96837
G1 X94.658 Y101.5 E19.97674
G1 X95.03 Y101.541 E19.98919
G1 X95.494 Y101.793 E20.00675
G1 X95.784 Y102.175 E20.0227
G1 X95.892 Y102.528 E20.03498
G1 X95.853 Y103.043 E20.05216
G1 X95.627 Y103.469 E20.0682
G1 X95.238 Y103.773 E20.08462
G1 X94.734 Y103.903 E20.10193
G1 F1500 E13.60193
G1 F300 Z0.4
G0 F6000 X135.336 Y104.683 Z0.4
;TYPE:SKIN
G1 F300 Z0.2
G1 F1500 E20.10193
G1 F600 X135.99 Y104.523 E20.12432
G1 X136.363 Y104.336 E20.1382
G1 X136.66 Y104.101 E20.1508
G1 X136.896 Y103.823 E20.16292
G1 F601.5 X137.098 Y103.458 E20.17676
G1 F626.6 X137.187 Y103.153 E20.18688
G1 F697.7 X137.214 Y102.572 E20.20352
G1 F781.8 X137.172 Y102.295 E20.21067
G1 F839.2 X136.993 Y101.815 E20.22285
G1 F845.1 X136.824 Y101.587 E20.22956
G1 F866.4 X136.559 Y101.261 E20.23923
G1 F854.1 X136.132 Y101.005 E20.25087
G1 F813.6 X135.836 Y100.855 E20.25901
G1 F764.3 X135.252 Y100.768 E20.27442
G1 F683.8 X134.814 Y100.811 E20.28727
G1 F625 X134.452 Y100.935 E20.29948
G1 F600 X134.206 Y101.079 E20.30896
G1 X133.778 Y101.437 E20.32752
G1 X133.474 Y102.004 E20.34892
G1 X133.332 Y102.519 E20.36669
G1 X133.375 Y102.901 E20.37948
G1 F564.7 X133.396 Y103.26 E20.39218
G1 F460.7 X133.368 Y103.434 E20.39982
G1 F406.1 X133.641 Y103.915 E20.427
G1 F484.8 X133.964 Y104.138 E20.44315
